X:2
T:The Doon
T:Callaghan's
T:Nellie Donovan
T:The Galtee Ranger ()
C:Traditional
N:Play 4 times
N:The Paris Set, Figure 1, Tune 2 of 2
Z:Gordon Turnbull, Edinburgh
Z:gturnbull@theflow.org.uk
Z:http://www.theflow.org.uk
B:Music For the Sets - The Blue Book
D:Dolores Keane & Jimmy Faulkner () 
R:Reel
L:1/8
M:C
K:G
B3 d cA ~A2 | BGGB dedc | B3 d cA ~A2 | [1 dBcA G2 GA :|| [2 dBcA G2 Bd ||
~g3a gfde | dc (3ABc defd | ~g3a gfde | =fddB c2 Bc |
d~g3 gfde | dc (3ABc defa | g2 bg g2 bg | g2 bg afdc |]
